src/actions/16/object-rotate-left.svg

<svg xmlns="http://www.w3.org/2000/svg" viewBox="0 0 16 16">
  <defs id="defs3051">
    <style type="text/css" id="current-color-scheme">
      .ColorScheme-Text {
        color:#2e3440;
      }
      </style>
  </defs>
 <path style="fill:currentColor;fill-opacity:1;stroke:none" 
     d="M 7.828125 1.671875 L 6.8789062 2.6210938 L 5 4.5 L 6.8789062 6.3789062 L 7.828125 7.328125 L 8.5351562 6.6210938 L 7.5859375 5.671875 L 6.9140625 5 L 11 5 L 11 4 L 6.9140625 4 L 7.5859375 3.328125 L 8.5351562 2.3789062 L 7.828125 1.671875 z M 12.5 5 C 12.22386 5 12 5.22386 12 5.5 C 12 5.77614 12.22386 6 12.5 6 C 12.77614 6 13 5.77614 13 5.5 C 13 5.22386 12.77614 5 12.5 5 z M 5.53125 6.5625 L 2 10.09375 L 5.90625 14 L 9.4375 10.46875 L 5.53125 6.5625 z M 13.5 8 C 13.22386 8 13 8.22386 13 8.5 C 13 8.77614 13.22386 9 13.5 9 C 13.77614 9 14 8.77614 14 8.5 C 14 8.22386 13.77614 8 13.5 8 z M 12.5 11 C 12.22386 11 12 11.22386 12 11.5 C 12 11.77614 12.22386 12 12.5 12 C 12.77614 12 13 11.77614 13 11.5 C 13 11.22386 12.77614 11 12.5 11 z M 9.5 12 C 9.22386 12 9 12.22386 9 12.5 C 9 12.77614 9.22386 13 9.5 13 C 9.77614 13 10 12.77614 10 12.5 C 10 12.22386 9.77614 12 9.5 12 z "
     class="ColorScheme-Text"
     />
</svg>

<svg viewBox="0 0 16 16" xmlns="http://www.w3.org/2000/svg">
 <defs>
  <style type="text/css">.ColorScheme-Text {
        color:#2e3440;
      }</style>
 </defs>
 <path class="ColorScheme-Text" d="m7.8281 1.6719-2.8281 2.8281 2.8281 2.8281 0.70703-0.70703-1.6211-1.6211h4.0859v-1h-4.0859l1.6211-1.6211-0.70703-0.70703zm4.6719 3.3281c-0.27614 0-0.5 0.22386-0.5 0.5s0.22386 0.5 0.5 0.5 0.5-0.22386 0.5-0.5-0.22386-0.5-0.5-0.5zm-6.9688 1.5625-3.5312 3.5312 3.9062 3.9062 3.5312-3.5312-3.9062-3.9062zm7.9688 1.4375c-0.27614 0-0.5 0.22386-0.5 0.5s0.22386 0.5 0.5 0.5 0.5-0.22386 0.5-0.5-0.22386-0.5-0.5-0.5zm-1 3c-0.27614 0-0.5 0.22386-0.5 0.5s0.22386 0.5 0.5 0.5 0.5-0.22386 0.5-0.5-0.22386-0.5-0.5-0.5zm-3 1c-0.27614 0-0.5 0.22386-0.5 0.5s0.22386 0.5 0.5 0.5 0.5-0.22386 0.5-0.5-0.22386-0.5-0.5-0.5z" fill="currentColor"/>
</svg>
